src/assets/images/realtime/realtimekit/web/components-gallery/rtk-logo.svg

<svg width="400" height="300" viewBox="0 0 400 300" fill="none" xmlns="http://www.w3.org/2000/svg" xmlns:xlink="http://www.w3.org/1999/xlink">
<g clip-path="url(#clip0_9781_45670)">
<rect width="400" height="300" fill="white"/>
<g style="mix-blend-mode:darken">
<path d="M0 4.21053C0 1.88512 1.88512 0 4.21053 0H395.789C398.115 0 400 1.88512 400 4.21053V295.789C400 298.115 398.115 300 395.789 300H4.21054C1.88513 300 0 298.115 0 295.789V4.21053Z" fill="url(#pattern0_9781_45670)"/>
</g>
<g clip-path="url(#clip1_9781_45670)">
<path d="M290.119 80H110V219.794H290.119V80Z" fill="#262626"/>
<path opacity="0.675" d="M214.916 146.875L180.667 181.124L164.699 165.156L122.761 207.094H154.697H206.637H275.135L214.916 146.875Z" fill="white" fill-opacity="0.2"/>
<path opacity="0.675" d="M154.626 133.689C161.128 133.689 166.399 128.419 166.399 121.917C166.399 115.415 161.128 110.144 154.626 110.144C148.124 110.144 142.853 115.415 142.853 121.917C142.853 128.419 148.124 133.689 154.626 133.689Z" fill="white" fill-opacity="0.2"/>
<rect x="201.065" y="87.587" width="84" height="26.2174" rx="13.1087" fill="#2160FD" fill-opacity="0.5"/>
<rect x="201.065" y="87.587" width="84" height="26.2174" rx="13.1087" stroke="#2160FD" stroke-width="1.17391"/>
<path d="M214.865 96.1583H216.049L218.417 100.144H218.517L220.885 96.1583H222.069L218.984 101.177V104.696H217.95V101.177L214.865 96.1583ZM224.968 104.829C224.39 104.829 223.883 104.692 223.447 104.416C223.013 104.141 222.674 103.756 222.429 103.262C222.188 102.767 222.067 102.189 222.067 101.528C222.067 100.861 222.188 100.278 222.429 99.7809C222.674 99.2834 223.013 98.8971 223.447 98.622C223.883 98.3468 224.39 98.2093 224.968 98.2093C225.546 98.2093 226.052 98.3468 226.486 98.622C226.922 98.8971 227.261 99.2834 227.503 99.7809C227.747 100.278 227.87 100.861 227.87 101.528C227.87 102.189 227.747 102.767 227.503 103.262C227.261 103.756 226.922 104.141 226.486 104.416C226.052 104.692 225.546 104.829 224.968 104.829ZM224.968 103.945C225.407 103.945 225.769 103.833 226.052 103.608C226.336 103.383 226.545 103.087 226.682 102.72C226.818 102.353 226.886 101.956 226.886 101.528C226.886 101.1 226.818 100.701 226.682 100.331C226.545 99.9615 226.336 99.6628 226.052 99.4349C225.769 99.207 225.407 99.093 224.968 99.093C224.529 99.093 224.168 99.207 223.884 99.4349C223.601 99.6628 223.391 99.9615 223.255 100.331C223.119 100.701 223.051 101.1 223.051 101.528C223.051 101.956 223.119 102.353 223.255 102.72C223.391 103.087 223.601 103.383 223.884 103.608C224.168 103.833 224.529 103.945 224.968 103.945ZM233.407 102.078V98.2926H234.391V104.696H233.407V103.612H233.34C233.19 103.937 232.957 104.214 232.64 104.442C232.323 104.667 231.923 104.779 231.439 104.779C231.039 104.779 230.683 104.692 230.372 104.517C230.061 104.339 229.816 104.072 229.638 103.716C229.46 103.358 229.371 102.906 229.371 102.361V98.2926H230.355V102.295C230.355 102.762 230.486 103.134 230.747 103.412C231.011 103.69 231.347 103.829 231.756 103.829C232.001 103.829 232.249 103.766 232.502 103.641C232.758 103.516 232.972 103.324 233.144 103.066C233.319 102.807 233.407 102.478 233.407 102.078ZM236.193 104.696V98.2926H237.143V99.2598H237.21C237.326 98.943 237.538 98.6859 237.843 98.4886C238.149 98.2912 238.494 98.1926 238.877 98.1926C238.949 98.1926 239.04 98.194 239.148 98.1968C239.257 98.1995 239.339 98.2037 239.394 98.2093V99.2098C239.361 99.2014 239.284 99.1889 239.165 99.1722C239.048 99.1528 238.924 99.1431 238.794 99.1431C238.483 99.1431 238.205 99.2084 237.96 99.339C237.718 99.4668 237.527 99.6447 237.385 99.8726C237.246 100.098 237.176 100.355 237.176 100.644V104.696H236.193ZM243.995 104.696V96.1583H245.029V103.779H248.998V104.696H243.995ZM253.066 104.829C252.488 104.829 251.981 104.692 251.545 104.416C251.111 104.141 250.772 103.756 250.528 103.262C250.286 102.767 250.165 102.189 250.165 101.528C250.165 100.861 250.286 100.278 250.528 99.7809C250.772 99.2834 251.111 98.8971 251.545 98.622C251.981 98.3468 252.488 98.2093 253.066 98.2093C253.645 98.2093 254.15 98.3468 254.584 98.622C255.02 98.8971 255.359 99.2834 255.601 99.7809C255.846 100.278 255.968 100.861 255.968 101.528C255.968 102.189 255.846 102.767 255.601 103.262C255.359 103.756 255.02 104.141 254.584 104.416C254.15 104.692 253.645 104.829 253.066 104.829ZM253.066 103.945C253.506 103.945 253.867 103.833 254.15 103.608C254.434 103.383 254.644 103.087 254.78 102.72C254.916 102.353 254.984 101.956 254.984 101.528C254.984 101.1 254.916 100.701 254.78 100.331C254.644 99.9615 254.434 99.6628 254.15 99.4349C253.867 99.207 253.506 99.093 253.066 99.093C252.627 99.093 252.266 99.207 251.983 99.4349C251.699 99.6628 251.489 99.9615 251.353 100.331C251.217 100.701 251.149 101.1 251.149 101.528C251.149 101.956 251.217 102.353 251.353 102.72C251.489 103.087 251.699 103.383 251.983 103.608C252.266 103.833 252.627 103.945 253.066 103.945ZM260.054 107.23C259.579 107.23 259.171 107.169 258.829 107.047C258.487 106.927 258.202 106.769 257.974 106.572C257.749 106.377 257.57 106.169 257.436 105.946L258.22 105.396C258.309 105.513 258.422 105.646 258.558 105.796C258.694 105.949 258.88 106.081 259.116 106.192C259.355 106.306 259.668 106.363 260.054 106.363C260.571 106.363 260.998 106.238 261.334 105.988C261.67 105.738 261.839 105.346 261.839 104.813V103.512H261.755C261.683 103.629 261.58 103.773 261.447 103.945C261.316 104.115 261.127 104.266 260.88 104.4C260.635 104.53 260.304 104.596 259.888 104.596C259.371 104.596 258.907 104.473 258.495 104.229C258.087 103.984 257.763 103.629 257.524 103.162C257.288 102.695 257.17 102.128 257.17 101.461C257.17 100.805 257.285 100.234 257.516 99.7475C257.746 99.2584 258.067 98.8804 258.479 98.6136C258.89 98.3441 259.365 98.2093 259.904 98.2093C260.321 98.2093 260.652 98.2787 260.896 98.4177C261.144 98.5539 261.333 98.7095 261.463 98.8846C261.597 99.0569 261.7 99.1986 261.772 99.3098H261.872V98.2926H262.822V104.879C262.822 105.429 262.697 105.877 262.447 106.222C262.2 106.569 261.866 106.823 261.447 106.984C261.03 107.148 260.566 107.23 260.054 107.23ZM260.021 103.712C260.416 103.712 260.749 103.622 261.021 103.441C261.294 103.26 261.501 103.001 261.643 102.661C261.784 102.322 261.855 101.917 261.855 101.444C261.855 100.983 261.786 100.576 261.647 100.223C261.508 99.8698 261.302 99.5933 261.03 99.3932C260.757 99.1931 260.421 99.093 260.021 99.093C259.604 99.093 259.257 99.1986 258.979 99.4099C258.704 99.6211 258.497 99.9045 258.358 100.26C258.221 100.616 258.153 101.011 258.153 101.444C258.153 101.889 258.223 102.282 258.362 102.624C258.504 102.963 258.712 103.23 258.987 103.424C259.265 103.616 259.61 103.712 260.021 103.712ZM267.225 104.829C266.646 104.829 266.139 104.692 265.703 104.416C265.269 104.141 264.93 103.756 264.686 103.262C264.444 102.767 264.323 102.189 264.323 101.528C264.323 100.861 264.444 100.278 264.686 99.7809C264.93 99.2834 265.269 98.8971 265.703 98.622C266.139 98.3468 266.646 98.2093 267.225 98.2093C267.803 98.2093 268.308 98.3468 268.742 98.622C269.178 98.8971 269.517 99.2834 269.759 99.7809C270.004 100.278 270.126 100.861 270.126 101.528C270.126 102.189 270.004 102.767 269.759 103.262C269.517 103.756 269.178 104.141 268.742 104.416C268.308 104.692 267.803 104.829 267.225 104.829ZM267.225 103.945C267.664 103.945 268.025 103.833 268.308 103.608C268.592 103.383 268.802 103.087 268.938 102.72C269.074 102.353 269.142 101.956 269.142 101.528C269.142 101.1 269.074 100.701 268.938 100.331C268.802 99.9615 268.592 99.6628 268.308 99.4349C268.025 99.207 267.664 99.093 267.225 99.093C266.785 99.093 266.424 99.207 266.141 99.4349C265.857 99.6628 265.647 99.9615 265.511 100.331C265.375 100.701 265.307 101.1 265.307 101.528C265.307 101.956 265.375 102.353 265.511 102.72C265.647 103.087 265.857 103.383 266.141 103.608C266.424 103.833 266.785 103.945 267.225 103.945Z" fill="white"/>
</g>
</g>
<defs>
<pattern id="pattern0_9781_45670" patternContentUnits="objectBoundingBox" width="0.0368421" height="0.0491228">
<use xlink:href="#image0_9781_45670" transform="scale(0.000657895 0.000877193)"/>
</pattern>
<clipPath id="clip0_9781_45670">
<rect width="400" height="300" fill="white"/>
</clipPath>
<clipPath id="clip1_9781_45670">
<rect x="110" y="80" width="180.119" height="139.794" rx="8" fill="white"/>
</clipPath>
<image id="image0_9781_45670" width="56" height="56" preserveAspectRatio="none" xlink:href="data:image/png;base64,iVBORw0KGgoAAAANSUhEUgAAADgAAAA4CAYAAACohjseAAAACXBIWXMAACxLAAAsSwGlPZapAAAAAXNSR0IArs4c6QAAAARnQU1BAACxjwv8YQUAAADdSURBVHgB7dmxDoMgFIXhCzEmbsbF9388F8PGAKHt6dSksvXaHHK+EQbzB0Sj4fFiA4s2OAWyUyA7BbJTIDsFslMgOwWyUyA7BbJTIDsFspvsBrVWO8/TSinWWrNlWWxdV5sm/8sH7w+/iDuO4x32KcZo+767R7pv0ZTSVxxgDKvqzT0w59ydw5b15h4YQujOXa3sr7kHzvPcncNh4809cNu2y1XEGE5Sb+GO32c4SXHY4H5EGFYV4UM8Jv5Nr2rsFMhOgewUyE6B7BTIToHsFMhOgewUyE6B7IYPfALcB0NZ5j6jXgAAAABJRU5ErkJggg=="/>
</defs>
</svg>

<svg xmlns="http://www.w3.org/2000/svg" xmlns:xlink="http://www.w3.org/1999/xlink" width="400" height="300" fill="none" viewBox="0 0 400 300"><g clip-path="url(#clip0_9781_45670)"><path fill="#fff" d="M0 0h400v300H0z"/><path fill="url(#pattern0_9781_45670)" d="M0 4.21A4.21 4.21 0 0 1 4.21 0h391.58A4.21 4.21 0 0 1 400 4.21v291.58a4.21 4.21 0 0 1-4.211 4.211H4.211A4.21 4.21 0 0 1 0 295.789z" style="mix-blend-mode:darken"/><g clip-path="url(#clip1_9781_45670)"><path fill="#262626" d="M290.119 80H110v139.794h180.119z"/><path fill="#fff" fill-opacity=".2" d="m214.916 146.875-34.249 34.249-15.968-15.968-41.938 41.938h152.374zm-60.29-13.186c6.502 0 11.773-5.27 11.773-11.772s-5.271-11.773-11.773-11.773-11.773 5.271-11.773 11.773 5.271 11.772 11.773 11.772" opacity=".675"/><rect width="84" height="26.217" x="201.065" y="87.587" fill="#2160fd" fill-opacity=".5" rx="13.109"/><rect width="84" height="26.217" x="201.065" y="87.587" stroke="#2160fd" stroke-width="1.174" rx="13.109"/><path fill="#fff" d="M214.865 96.158h1.184l2.368 3.986h.1l2.368-3.986h1.184l-3.085 5.019v3.519h-1.034v-3.519zm10.103 8.671q-.867 0-1.521-.413a2.8 2.8 0 0 1-1.018-1.154q-.362-.743-.362-1.734 0-1.001.362-1.747a2.8 2.8 0 0 1 1.018-1.159q.654-.413 1.521-.413t1.518.413q.654.412 1.017 1.159.366.746.367 1.747 0 .992-.367 1.734a2.77 2.77 0 0 1-1.017 1.154q-.651.413-1.518.413m0-.884q.659 0 1.084-.337.425-.338.63-.888.204-.55.204-1.192t-.204-1.197a2 2 0 0 0-.63-.896q-.425-.342-1.084-.342-.658 0-1.084.342a2 2 0 0 0-.629.896q-.204.555-.204 1.197t.204 1.192.629.888q.426.337 1.084.337m8.439-1.867v-3.785h.984v6.403h-.984v-1.084h-.067a2.1 2.1 0 0 1-.7.83q-.475.337-1.201.337-.6 0-1.067-.262a1.84 1.84 0 0 1-.734-.801q-.267-.537-.267-1.355v-4.068h.984v4.002q0 .7.392 1.117.396.417 1.009.417.367 0 .746-.188.384-.188.642-.575.263-.388.263-.988m2.786 2.618v-6.403h.95v.967h.067q.175-.475.633-.771a1.87 1.87 0 0 1 1.034-.296q.108 0 .271.004t.246.012v1a3 3 0 0 0-.229-.037 2.3 2.3 0 0 0-.371-.029q-.466 0-.834.196a1.44 1.44 0 0 0-.784 1.305v4.052zm7.802 0v-8.538h1.034v7.621h3.969v.917zm9.071.133q-.867 0-1.521-.413a2.8 2.8 0 0 1-1.017-1.154q-.363-.743-.363-1.734 0-1.001.363-1.747a2.8 2.8 0 0 1 1.017-1.159q.654-.413 1.521-.413.868 0 1.518.413.654.412 1.017 1.159.367.746.367 1.747 0 .992-.367 1.734a2.77 2.77 0 0 1-1.017 1.154q-.65.413-1.518.413m0-.884q.66 0 1.084-.337.426-.338.63-.888t.204-1.192-.204-1.197a2 2 0 0 0-.63-.896q-.424-.342-1.084-.342-.658 0-1.083.342a2 2 0 0 0-.63.896q-.204.555-.204 1.197t.204 1.192.63.888q.425.337 1.083.337m6.988 3.285q-.712 0-1.225-.183a2.6 2.6 0 0 1-.855-.475 2.6 2.6 0 0 1-.538-.626l.784-.55q.134.175.338.4.204.23.558.396.359.171.938.171.776 0 1.28-.375.505-.375.505-1.175v-1.301h-.084a5 5 0 0 1-.308.433 1.8 1.8 0 0 1-.567.455q-.368.196-.992.196-.775 0-1.393-.367a2.6 2.6 0 0 1-.971-1.067q-.354-.7-.354-1.701 0-.984.346-1.713.345-.735.963-1.134a2.54 2.54 0 0 1 1.425-.405q.626 0 .992.209.372.203.567.467.201.258.309.425h.1v-1.017h.95v6.586q0 .825-.375 1.343a2.14 2.14 0 0 1-1 .762 3.8 3.8 0 0 1-1.393.246m-.033-3.518q.592 0 1-.271.41-.27.622-.78.212-.508.212-1.217 0-.692-.208-1.221a1.84 1.84 0 0 0-.617-.83q-.41-.3-1.009-.3-.625 0-1.042.317a1.93 1.93 0 0 0-.621.85 3.3 3.3 0 0 0-.205 1.184q0 .667.209 1.18.213.509.625.8.417.288 1.034.288m7.204 1.117q-.868 0-1.522-.413a2.8 2.8 0 0 1-1.017-1.154q-.363-.743-.363-1.734 0-1.001.363-1.747a2.8 2.8 0 0 1 1.017-1.159q.654-.413 1.522-.413.867 0 1.517.413.654.412 1.017 1.159.367.746.367 1.747 0 .992-.367 1.734a2.77 2.77 0 0 1-1.017 1.154q-.65.413-1.517.413m0-.884q.659 0 1.083-.337.426-.338.63-.888t.204-1.192-.204-1.197a2 2 0 0 0-.63-.896q-.424-.342-1.083-.342-.66 0-1.084.342a2 2 0 0 0-.63.896q-.204.555-.204 1.197t.204 1.192.63.888q.424.337 1.084.337"/></g></g><defs><clipPath id="clip0_9781_45670"><path fill="#fff" d="M0 0h400v300H0z"/></clipPath><clipPath id="clip1_9781_45670"><rect width="180.119" height="139.794" x="110" y="80" fill="#fff" rx="8"/></clipPath><pattern id="pattern0_9781_45670" width=".037" height=".049" patternContentUnits="objectBoundingBox"><use xlink:href="#image0_9781_45670" transform="scale(.00066 .00088)"/></pattern><image xlink:href="data:image/png;base64,iVBORw0KGgoAAAANSUhEUgAAADgAAAA4CAYAAACohjseAAAACXBIWXMAACxLAAAsSwGlPZapAAAAAXNSR0IArs4c6QAAAARnQU1BAACxjwv8YQUAAADdSURBVHgB7dmxDoMgFIXhCzEmbsbF9388F8PGAKHt6dSksvXaHHK+EQbzB0Sj4fFiA4s2OAWyUyA7BbJTIDsFslMgOwWyUyA7BbJTIDsFspvsBrVWO8/TSinWWrNlWWxdV5sm/8sH7w+/iDuO4x32KcZo+767R7pv0ZTSVxxgDKvqzT0w59ydw5b15h4YQujOXa3sr7kHzvPcncNh4809cNu2y1XEGE5Sb+GO32c4SXHY4H5EGFYV4UM8Jv5Nr2rsFMhOgewUyE6B7BTIToHsFMhOgewUyE6B7IYPfALcB0NZ5j6jXgAAAABJRU5ErkJggg==" id="image0_9781_45670" width="56" height="56" preserveAspectRatio="none"/></defs></svg>
